Obsidian-SemiLight/actions/16s/network-disconnect.svg

<svg viewBox="0 0 16 16" xmlns="http://www.w3.org/2000/svg"><path d="m13.300781 2-2.65039 2.6503906-1.0644535-1.0644531-3 3 2.828125 2.828125 2.9999995-3-1.064453-1.0644531 2.650391-2.6503906zm-7.7148435 5.5859375-2 2 1.0644531 1.0644535-2.6503906 2.65039.6992188.699219 2.6503906-2.650391 1.0644531 1.064453 2-2z" fill="#4d4d4d"/><path d="m9 9.83 1.667 1.667-1.667 1.667.833.833 1.667-1.667 1.667 1.667.833-.833-1.667-1.667 1.667-1.667-.833-.833-1.667 1.667-1.667-1.667z" fill="#da4453"/></svg>

<svg xmlns="http://www.w3.org/2000/svg" viewBox="0 0 16 16">
  <defs id="defs3051">
    <style type="text/css" id="current-color-scheme">
      .ColorScheme-Text {
        color:#4d4d4d;
      }
      .ColorScheme-NegativeText {
        color:#da4453;
      }
      </style>
  </defs>
 <path style="fill:currentColor;fill-opacity:1;stroke:none" 
     d="M 13.300781 2 L 10.650391 4.6503906 L 9.5859375 3.5859375 L 6.5859375 6.5859375 L 9.4140625 9.4140625 L 12.414062 6.4140625 L 11.349609 5.3496094 L 14 2.6992188 L 13.300781 2 z M 5.5859375 7.5859375 L 3.5859375 9.5859375 L 4.6503906 10.650391 L 2 13.300781 L 2.6992188 14 L 5.3496094 11.349609 L 6.4140625 12.414062 L 8.4140625 10.414062 L 5.5859375 7.5859375 z "
     class="ColorScheme-Text"
     />
   <path
     style="fill:currentColor;fill-opacity:1;stroke:none" 
     d="M 9,9.83 10.667,11.497 9,13.164 9.833,13.997 11.5,12.33 13.167,13.997 14,13.164 12.333,11.497 14,9.83 13.167,8.997 11.5,10.664 9.833,8.997 Z" 
     class="ColorScheme-NegativeText"
     />
</svg>
